X: 3103
T: Mrs Ramsay of Barnton's    Strathspey
%R: strathspey
B: Niel Gow & Sons "A Third Collection of Strathspey Reels, etc." v.3 p.10 #3 (and top 2 staffs on p.11)
Z: 2022 John Chambers <jc:trillian.mit.edu>
M: C|
L: 1/8
K: Bb
% - - - - - - - - - -
% Voice 1 reformatted for _ _-bar lines, for compactness and proofreading.
V: 1 staves=2
|:\
D>FBd {d}c>Bcd | B<FB>d {d}c>BTG2 | DFBd {d}c>Bcd | fdb>d {d}c/B/c/d/ B2 ::
f<BTf>g f>dTc>d | f<BTf>g f>dTc2 | (d<f)b>d {d}c>Bcd | D>FBd ({d}c/B/)c/d/ TB2 :|
% - - - - - - - - - -
% Voice 2 preserves the staff layout in the book.
V: 2 clef=bass middle=d
|:\
b2B2 f2F2 | d2B2 f2e2 | B2b2 f2e2 | d2B2 f2d2 ::
b3e dBdF | B2b2 dBf2 | b2B2 f2F2 | B2b2 f2d2 :|


